X:156
T:Someone to Watch Over Me
C:
N:TablEdited by Jim Nikora
L:1/8
Q:1/4=120
M:4/4
K:F
"FM7"z8 | "FM7"z8 |: "FM7"z2 FG "F7"Ac df | "Bm7b5"gg2f "Bbdim7"e4 | "Gm7"ff2e "Abdim"d4 | 
"Gm6"ee2d "Bbm7"c4 | "Gm7"z2 d2 "Am7"c2 "Bb6"B2 | "Bdim"f4 "C7sus4"FG z2 |1 "Am7"A4 "D7"A4 | 
"Gm7"A4 "C7"G4 :|2 "FM7"F2 F2 F2 F2 | "Cm7"F2 G2 "G7"A2 c2 | "BbM7"e2 f2 e2 f2 | 
g2 f4 e2 | "BbM7"g2 f4 e2 | "FM7"g2 f4 d2 | "Bdim7"f2 e4 d2 | "E7"f2 e4 _d2 | 
"Am7"A4 "D7b9"A4 | "Gm7"A4 "C7b9"G4 :|3 "FM7"F2 F2 "D7"F2 F2 | "Gm7"F2 F2 "C7"F4 | 


